!!! OTL: Berkowitz534
!!! Chapter: 1
!!! Section: IV
!!! Page: 134
!!! Mode: 
!!! Encoder: DJB
**kern
*staff1
*I"Piano
=1-
*clefG2
*k[]
*e:
*M4/4
4e/
4b\
8g/L
8f#/J
4e/
=2
4g/
4dd\
8b-/L
8a/J
4g/
=3
8a/L
8g/J
4f#/
8g/L
8f#/J
4e/
=4
8d#/L
8e/
8f#/
8g/J
2f#/
=5
4g/
4dd\
8b/L
8a/J
4g/
=6
4b-\
4ff\
8dd-\L
8cc\J
4b-\
=7
8cc\L
8b-\J
4a/
8b-/L
8a/J
4g/
=8
!!linebreak:original
8a/L
8g/J
4f#/
8g/L
8f#/J
4e/
=9
4B/
4cc\
8b/L
8a/
8g/
8f#/J
=10
4e/
8d#/L
8f#/J
2e/
==
*-
